src/dsmComponents/Icons/location-settings-12px.svg

<?xml version="1.0" encoding="UTF-8"?>
<svg width="12px" height="12px" viewBox="0 0 12 12" version="1.1" xmlns="http://www.w3.org/2000/svg" xmlns:xlink="http://www.w3.org/1999/xlink">
    <!-- Generator: Sketch 59.1 (86144) - https://sketch.com -->
    <title>location-settings-12px</title>
    <desc>Created with Sketch.</desc>
    <defs>
        <path d="M9.375,6 L9.675,6.9 C9.825,6.9375 9.975,6.975 10.0875,7.05 L10.0875,7.05 L10.875,6.6375 L11.4,7.1625 L10.9875,7.95 C11.0625,8.0625 11.1,8.2125 11.1375,8.325 L11.1375,8.325 L12,8.625 L12,9.375 L11.1375,9.675 C11.1,9.825 11.0625,9.975 10.9875,10.0875 L10.9875,10.0875 L11.4,10.875 L10.875,11.4 L10.0875,10.9875 C9.9375,11.025 9.825,11.1 9.675,11.1375 L9.675,11.1375 L9.375,12 L8.625,12 L8.325,11.1375 C8.175,11.1 8.025,11.0625 7.9125,10.9875 L7.9125,10.9875 L7.125,11.4 L6.6,10.875 L7.0125,10.0875 C6.975,9.9375 6.9,9.825 6.8625,9.675 L6.8625,9.675 L6,9.375 L6,8.625 L6.8625,8.325 C6.9,8.2125 6.9375,8.0625 7.0125,7.95 L7.0125,7.95 L6.6,7.1625 L7.1625,6.6 L7.95,7.0125 C8.0625,6.9375 8.2125,6.9 8.325,6.8625 L8.325,6.8625 L8.625,6 L9.375,6 Z M4.5,0 C6.712,0 9,1.683 9,4.5 C9,4.6625 8.9845,4.8305 8.956,5.002 C6.7675,5.026 5,6.8055 5,9 C5,9.6325 5.151,10.2285 5.412,10.76 C5.106,11.0965 4.891,11.316 4.855,11.3525 C4.761,11.447 4.6335,11.5 4.5,11.5 C4.3665,11.5 4.239,11.447 4.145,11.3525 C3.976,11.1815 0,7.1445 0,4.5 C0,1.683 2.288,0 4.5,0 Z M9,7.875 C8.3625,7.875 7.875,8.3625 7.875,9 C7.875,9.6375 8.3625,10.125 9,10.125 C9.6375,10.125 10.125,9.6375 10.125,9 C10.125,8.3625 9.6375,7.875 9,7.875 Z M4.5,3 C3.6715,3 3,3.6715 3,4.5 C3,5.3285 3.6715,6 4.5,6 C5.3285,6 6,5.3285 6,4.5 C6,3.6715 5.3285,3 4.5,3 Z" id="path-1"></path>
    </defs>
    <g id="Final" stroke="none" stroke-width="1" fill="none" fill-rule="evenodd">
        <g id="All-Nucleo-Icons" transform="translate(-174.000000, -4508.000000)">
            <g id="Solo/Nucleo/12px/location-settings" transform="translate(168.000000, 4502.000000)">
                <g id="map-engine" transform="translate(6.000000, 6.000000)">
                    <g id="Colour/Default-Colour">
                        <mask id="mask-2" fill="white">
                            <use xlink:href="#path-1"></use>
                        </mask>
                        <g id="Mask" fill-rule="nonzero"></g>
                        <g id="colour/neutral/chia" mask="url(#mask-2)" fill="#737373">
                            <g transform="translate(-18.000000, -18.000000)" id="Colour">
                                <rect x="0" y="0" width="48" height="48"></rect>
                            </g>
                        </g>
                    </g>
                </g>
            </g>
        </g>
    </g>
</svg>

<svg width="12" height="12" xmlns="http://www.w3.org/2000/svg" xmlns:xlink="http://www.w3.org/1999/xlink"><defs><path d="M9.375 6l.3.9c.15.037.3.075.412.15l.788-.412.525.524-.412.788c.075.112.112.263.15.375l.862.3v.75l-.863.3c-.037.15-.075.3-.15.412l.413.788-.525.525-.787-.412c-.15.037-.263.112-.413.15l-.3.862h-.75l-.3-.863c-.15-.037-.3-.075-.412-.15l-.788.413-.525-.525.413-.787c-.038-.15-.113-.263-.15-.413L6 9.375v-.75l.862-.3c.038-.112.075-.262.15-.375L6.6 7.162l.563-.562.787.413c.112-.075.263-.113.375-.15l.3-.863h.75zM4.5 0C6.712 0 9 1.683 9 4.5c0 .162-.015.33-.044.502A3.999 3.999 0 005 9c0 .633.151 1.229.412 1.76-.306.337-.521.556-.557.592a.5.5 0 01-.71 0C3.976 11.182 0 7.144 0 4.5 0 1.683 2.288 0 4.5 0zM9 7.875c-.637 0-1.125.488-1.125 1.125S8.363 10.125 9 10.125 10.125 9.637 10.125 9 9.637 7.875 9 7.875zM4.5 3a1.5 1.5 0 100 3 1.5 1.5 0 000-3z" id="location-settings-12px_svg__a"/></defs><use fill="#737373" xlink:href="#location-settings-12px_svg__a" fill-rule="evenodd"/></svg>
